docs/themes/v2/source/images/new/staricon.svg

<svg fill="none" height="15" viewBox="0 0 16 15" width="16" xmlns="http://www.w3.org/2000/svg"><path clip-rule="evenodd" d="m8.00006 12-4.70228 2.4721.89806-5.23603-3.804231-3.70821 5.257311-.76393 2.35114-4.76393 2.35114 4.76393 5.2573.76393-3.8042 3.70821.898 5.23603z" fill="#000" fill-rule="evenodd"/></svg>

<svg width="16" height="15" viewBox="0 0 16 15" fill="none" xmlns="http://www.w3.org/2000/svg">
<path fill-rule="evenodd" clip-rule="evenodd" d="M8.00006 12L3.29778 14.4721L4.19584 9.23607L0.391609 5.52786L5.64892 4.76393L8.00006 0L10.3512 4.76393L15.6085 5.52786L11.8043 9.23607L12.7023 14.4721L8.00006 12Z" fill="black"/>
</svg>
